icon-svg/wall-tuar.svg

<svg xmlns="http://www.w3.org/2000/svg" viewBox="0 0 24 24"><path fill="#44739e" d="M20.31 3.45c0-.481-.723-.963-2.408-1.199a35.6 35.6 0 0 0-5.059-.241 35.6 35.6 0 0 0-5.058.241c-1.687.241-2.409.482-2.409 1.204v.964l-1.686.239c-.241 0-.241.241-.241.481l.241 13.488a.236.236 0 0 0 .241.241l4.817 2.65c1.205.241 2.65.241 3.854.482h.722c2.41 0 3.855-.482 4.337-1.2v-4.825h.237a12 12 0 0 0 1.689-.721c.241-.241.723-.482.723-.723s.241-3.854.241-5.298-.241-5.54-.241-5.781m-2.89 7.949a28 28 0 0 1-4.577.24 29 29 0 0 1-4.577-.24 3.9 3.9 0 0 1-2.164-.725V8.027h.241a15 15 0 0 0 1.687.481 36 36 0 0 0 5.058.482 36 36 0 0 0 5.059-.482 4.5 4.5 0 0 0 1.685-.481v2.89a7.1 7.1 0 0 1-2.408.482m2.163-4.336a7 7 0 0 1-2.167.482 29.5 29.5 0 0 1-4.577.482 29 29 0 0 1-4.577-.241l-2.164-.723v-2.89a15 15 0 0 1 1.683.485 35.6 35.6 0 0 0 5.058.241 35.6 35.6 0 0 0 5.055-.241 4.5 4.5 0 0 0 1.685-.482v2.887M8.266 2.969c1.446 0 3.132-.241 4.577-.241a29 29 0 0 1 4.577.241 5.7 5.7 0 0 1 1.926.481 5.3 5.3 0 0 1-1.926.241 26.7 26.7 0 0 1-4.577.482 29 29 0 0 1-4.577-.241 5.7 5.7 0 0 1-1.927-.482c.723-.241 1.205-.241 1.927-.481M19.587 14.53l-2.167.723a26.7 26.7 0 0 1-4.577.481 15.1 15.1 0 0 1-4.577-.722 2.74 2.74 0 0 1-1.927-.723 14.3 14.3 0 0 0-.237-2.65 3.5 3.5 0 0 0 1.687.482 36 36 0 0 0 5.058.482 36 36 0 0 0 5.059-.482 3.5 3.5 0 0 0 1.685-.482v2.891"/></svg>

<?xml version="1.0" encoding="UTF-8"?>
<svg width="33px" height="32px" viewBox="0 0 24 24" fill="#44739e" version="1.1" xmlns="http://www.w3.org/2000/svg" xmlns:xlink="http://www.w3.org/1999/xlink">
            <path d="m 20.313,3.492 v 0 c 0,-0.482 -0.723,-0.964 -2.409,-1.2 A 35.593,35.593 0 0 0 12.843,2.051 35.586,35.586 0 0 0 7.783,2.292 C 6.096,2.533 5.373,2.774 5.373,3.497 v 0 0.964 L 3.687,4.7 C 3.446,4.7 3.446,4.941 3.446,5.181 l 0.241,13.494 a 0.236,0.236 0 0 0 0.241,0.241 l 4.819,2.651 v 0 c 1.205,0.241 2.651,0.241 3.855,0.482 h 0.723 c 2.41,0 3.856,-0.482 4.338,-1.2 V 16.022 H 17.9 A 11.732,11.732 0 0 0 19.59,15.3 c 0.241,-0.241 0.723,-0.482 0.723,-0.723 0,-0.241 0.241,-3.855 0.241,-5.3 0,-1.445 -0.241,-5.542 -0.241,-5.783 m -2.891,7.952 A 27.788,27.788 0 0 1 12.843,11.686 29.28,29.28 0 0 1 8.265,11.446 3.887,3.887 0 0 1 6.1,10.721 v 0 -2.651 h 0.241 a 15.359,15.359 0 0 0 1.687,0.482 35.955,35.955 0 0 0 5.06,0.482 35.955,35.955 0 0 0 5.061,-0.482 4.463,4.463 0 0 0 1.686,-0.482 v 0 2.892 0 a 7.124,7.124 0 0 1 -2.409,0.482 M 19.59,7.106 v 0 A 7.031,7.031 0 0 1 17.422,7.588 29.528,29.528 0 0 1 12.843,8.07 29.16,29.16 0 0 1 8.265,7.829 L 6.1,7.106 V 4.215 A 15.359,15.359 0 0 1 7.783,4.7 35.586,35.586 0 0 0 12.843,4.941 35.593,35.593 0 0 0 17.9,4.7 4.463,4.463 0 0 0 19.586,4.218 V 7.106 M 8.265,3.01 c 1.446,0 3.133,-0.241 4.578,-0.241 A 29.166,29.166 0 0 1 17.422,3.01 5.661,5.661 0 0 1 19.349,3.492 5.3,5.3 0 0 1 17.422,3.733 26.693,26.693 0 0 1 12.843,4.215 29.16,29.16 0 0 1 8.265,3.974 5.672,5.672 0 0 1 6.337,3.492 C 7.06,3.251 7.542,3.251 8.265,3.01 M 19.59,14.576 17.422,15.299 A 26.693,26.693 0 0 1 12.843,15.781 15.131,15.131 0 0 1 8.265,15.058 2.737,2.737 0 0 1 6.337,14.335 14.314,14.314 0 0 0 6.1,11.684 a 3.483,3.483 0 0 0 1.687,0.482 35.955,35.955 0 0 0 5.06,0.482 35.955,35.955 0 0 0 5.061,-0.482 3.479,3.479 0 0 0 1.686,-0.482 v 0 2.892"></path>

</svg>
